src/assets/icons/pul-icon-map.svg

<!-- Generated by IcoMoon.io -->
<svg version="1.1" xmlns="http://www.w3.org/2000/svg" width="16" height="16" viewBox="0 0 16 16">
<title>map</title>
<path d="M10 0.981l4 2.857v3.161c0 0.184 0.149 0.333 0.333 0.333s0.333-0.149 0.333-0.333v-3.333c0-0.108-0.052-0.209-0.139-0.271l-4.667-3.333c-0.006-0.004-0.014-0.002-0.020-0.007-0.051-0.032-0.109-0.055-0.174-0.055s-0.123 0.023-0.174 0.055c-0.006 0.004-0.014 0.002-0.020 0.007l-4.473 3.195-4.473-3.195c-0.101-0.073-0.235-0.083-0.347-0.025s-0.181 0.172-0.181 0.297v10.667c0 0.108 0.052 0.209 0.139 0.271l4.667 3.333c0.006 0.005 0.014 0.003 0.020 0.007 0.051 0.032 0.109 0.055 0.174 0.055s0.123-0.023 0.174-0.055c0.006-0.004 0.014-0.002 0.020-0.007l4-2.857c0.15-0.107 0.185-0.315 0.077-0.465s-0.315-0.185-0.465-0.078l-3.473 2.481v-9.848l4-2.857v6.019c0 0.184 0.149 0.333 0.333 0.333s0.333-0.149 0.333-0.333v-6.019zM0.667 0.981l4 2.857v9.847l-4-2.857v-9.848zM13 8c-1.654 0-3 1.346-3 3 0 1.549 2.463 4.544 2.744 4.88 0.063 0.076 0.157 0.12 0.256 0.12s0.193-0.044 0.256-0.12c0.281-0.336 2.744-3.331 2.744-4.88 0-1.654-1.346-3-3-3zM13 15.138c-0.83-1.044-2.333-3.143-2.333-4.138 0-1.287 1.047-2.333 2.333-2.333s2.333 1.047 2.333 2.333c0 0.994-1.504 3.093-2.333 4.138zM13 9.667c-0.735 0-1.333 0.598-1.333 1.333s0.598 1.333 1.333 1.333 1.333-0.598 1.333-1.333c0-0.735-0.598-1.333-1.333-1.333zM13 11.667c-0.367 0-0.667-0.299-0.667-0.667s0.299-0.667 0.667-0.667 0.667 0.299 0.667 0.667-0.299 0.667-0.667 0.667z"></path>
</svg>

<svg xmlns="http://www.w3.org/2000/svg" viewBox="0 0 16 16">
    <path d="M10 .981l4 2.857v3.161a.333.333 0 1 0 .666 0V3.666a.333.333 0 0 0-.139-.271L9.86.062C9.854.058 9.846.06 9.84.055 9.789.023 9.731 0 9.666 0s-.123.023-.174.055c-.006.004-.014.002-.02.007L4.999 3.257.526.062a.333.333 0 1 0-.528.272v10.667c0 .108.052.209.139.271l4.667 3.333c.006.005.014.003.02.007.051.032.109.055.174.055s.123-.023.174-.055c.006-.004.014-.002.02-.007l4-2.857a.333.333 0 1 0-.388-.543l-3.473 2.481V3.838l4-2.857V7a.333.333 0 1 0 .666 0V.981zm-9.333 0l4 2.857v9.847l-4-2.857V.98zM13 8c-1.654 0-3 1.346-3 3 0 1.549 2.463 4.544 2.744 4.88a.333.333 0 0 0 .512 0C13.537 15.544 16 12.549 16 11c0-1.654-1.346-3-3-3zm0 7.138c-.83-1.044-2.333-3.143-2.333-4.138 0-1.287 1.047-2.333 2.333-2.333S15.333 9.714 15.333 11c0 .994-1.504 3.093-2.333 4.138zm0-5.471c-.735 0-1.333.598-1.333 1.333s.598 1.333 1.333 1.333 1.333-.598 1.333-1.333S13.735 9.667 13 9.667zm0 2a.668.668 0 0 1 0-1.334.667.667 0 0 1 0 1.334z"/>
</svg>
